symbols/web/switch_account/materialsymbolsrounded/switch_account_wght200gradN25fill1_24px.svg

<svg xmlns="http://www.w3.org/2000/svg" height="24" width="24"><path d="M13.925 11.625q1.025 0 1.738-.725.712-.725.712-1.725 0-1.025-.712-1.738-.713-.712-1.738-.712t-1.737.712q-.713.713-.713 1.738 0 1 .713 1.725.712.725 1.737.725ZM8.55 17q-.65 0-1.1-.45Q7 16.1 7 15.45V4.7q0-.65.45-1.1.45-.45 1.1-.45H19.3q.65 0 1.1.45.45.45.45 1.1v10.75q0 .65-.45 1.1-.45.45-1.1.45ZM4.7 20.85q-.65 0-1.1-.45-.45-.45-.45-1.1V7.575q0-.2.138-.338.137-.137.337-.137.175 0 .313.137.137.138.137.338V19.3q0 .275.175.45t.45.175h11.725q.2 0 .338.137.137.138.137.313 0 .2-.137.337-.138.138-.338.138Zm3.8-4.775h10.85q-1.15-1.25-2.55-1.85-1.4-.6-2.875-.6t-2.875.6q-1.4.6-2.55 1.85Z"/></svg>

<svg xmlns="http://www.w3.org/2000/svg" height="24" width="24"><path d="M13.925 11.625Q14.95 11.625 15.663 10.9Q16.375 10.175 16.375 9.175Q16.375 8.15 15.663 7.437Q14.95 6.725 13.925 6.725Q12.9 6.725 12.188 7.437Q11.475 8.15 11.475 9.175Q11.475 10.175 12.188 10.9Q12.9 11.625 13.925 11.625ZM8.55 17Q7.9 17 7.45 16.55Q7 16.1 7 15.45V4.7Q7 4.05 7.45 3.6Q7.9 3.15 8.55 3.15H19.3Q19.95 3.15 20.4 3.6Q20.85 4.05 20.85 4.7V15.45Q20.85 16.1 20.4 16.55Q19.95 17 19.3 17ZM4.7 20.85Q4.05 20.85 3.6 20.4Q3.15 19.95 3.15 19.3V7.575Q3.15 7.375 3.288 7.237Q3.425 7.1 3.625 7.1Q3.8 7.1 3.938 7.237Q4.075 7.375 4.075 7.575V19.3Q4.075 19.575 4.25 19.75Q4.425 19.925 4.7 19.925H16.425Q16.625 19.925 16.763 20.062Q16.9 20.2 16.9 20.375Q16.9 20.575 16.763 20.712Q16.625 20.85 16.425 20.85ZM8.5 16.075H19.35Q18.2 14.825 16.8 14.225Q15.4 13.625 13.925 13.625Q12.45 13.625 11.05 14.225Q9.65 14.825 8.5 16.075Z"/></svg>
